resources/svg/folder-cycle.svg

<svg xmlns="http://www.w3.org/2000/svg" viewBox="0 0 24 24" fill="currentColor"><path fill="none" stroke="currentColor" stroke-width="2" d="M7.0001,18 C7.0001,15.239 9.2391,13 12.0001,13 C13.9851,13 15.6991,14.156 16.5,16 M17.0001,18 C17.0001,20.761 14.7611,23 12.0001,23 C10.0151,23 8.3011,21.844 7.5,20 M13.0001,16 L17.0001,16 L17.0001,12 M11.0001,20 L7.0001,20 L7.0001,24 M4.0001,23 L1.0001,23 L1.0001,5 L1.0001,1 L9.0001,1 L12.0001,5 L23.0001,5 L23.0001,23 L19.0001,23 M1.0001,9 L23.0001,9 M4,23 L1,23 L1,1 L9,1 L12,5 L23,5 L23,23 L19,23 M1,9 L23,9"/></svg>

<svg viewBox="0 0 24 24"><path fill="none" stroke="currentColor" stroke-width="2" d="M7 18a5 5 0 0 1 5-5c1.985 0 3.7 1.156 4.5 3m.5 2a5 5 0 0 1-5 5c-1.985 0-3.699-1.156-4.5-3m5.5-4h4v-4m-6 8H7v4m-3-1H1V1h8l3 4h11v18h-4M1 9h22M4 23H1V1h8l3 4h11v18h-4M1 9h22"/></svg>
